images/wheelchair_icon.svg

<?xml version="1.0" encoding="UTF-8"?>
<svg width="83px" height="79px" viewBox="0 0 83 79" version="1.1" xmlns="http://www.w3.org/2000/svg" xmlns:xlink="http://www.w3.org/1999/xlink">
    <defs>
        <polygon id="path-1" points="2.08500418e-20 0.964923077 2.08500418e-20 78.4603077 68.9289231 78.4603077 68.9289231 0.964923077 0 0.964923077"></polygon>
    </defs>
    <g id="Pages" stroke="none" stroke-width="1" fill="none" fill-rule="evenodd">
        <g id="Print" transform="translate(-396.000000, -7381.000000)">
            <g id="Iconography" transform="translate(379.000000, 6893.000000)">
                <g id="Group-4" transform="translate(0.000000, 167.000000)">
                    <g id="Group-9" transform="translate(17.000000, 321.000000)">
                        <path d="M82.3678462,63.1347692 C81.0216923,60.8778462 78.0724615,60.1301538 75.7693846,61.4701538 L69.3986154,65.1778462 L71.7586154,69.2655385 L82.3678462,63.1347692 Z" id="Fill-2" fill="#85929D"></path>
                        <path d="M28.8761538,53.3023077 C27.1361538,53.3023077 25.7269231,54.7130769 25.7269231,56.4515385 C25.7269231,58.1915385 27.1361538,59.6007692 28.8761538,59.6007692 C30.6161538,59.6007692 32.0253846,58.1915385 32.0253846,56.4515385 C32.0253846,54.7130769 30.6161538,53.3023077 28.8761538,53.3023077" id="Fill-4" fill="#85929D"></path>
                        <g id="Group-8">
                            <mask id="mask-2" fill="white">
                                <use xlink:href="#path-1"></use>
                            </mask>
                            <g id="Clip-7"></g>
                            <path d="M60.9135385,72.1018462 C58.7427692,72.1018462 56.9812308,70.3418462 56.9812308,68.1710769 C56.9812308,66.0003077 58.7427692,64.2418462 60.9135385,64.2418462 C63.0843077,64.2418462 64.8443077,66.0003077 64.8443077,68.1710769 C64.8443077,70.3418462 63.0843077,72.1018462 60.9135385,72.1018462 L60.9135385,72.1018462 Z M53.2873846,46.5510769 L49.5935385,46.5510769 C46.292,38.5341538 38.5904615,32.7956923 29.552,32.3249231 C29.472,31.5387692 29.0012308,27.4510769 29.0012308,27.4510769 L53.2873846,27.4510769 L53.2873846,46.5510769 Z M28.2443077,72.7495385 C18.7858462,72.7495385 11.1181538,65.0818462 11.1181538,55.6233846 C11.1181538,46.1649231 18.7858462,38.4987692 28.2443077,38.4987692 C37.7012308,38.4987692 45.3689231,46.1649231 45.3689231,55.6233846 C45.3689231,65.0818462 37.7012308,72.7495385 28.2443077,72.7495385 L28.2443077,72.7495385 Z M60.7535385,59.9126154 L59.2612308,59.9126154 L59.2612308,55.668 L65.3135385,55.668 L65.3135385,46.5510769 L59.2612308,46.5510769 L59.2612308,25.0156923 C59.2612308,23.0495385 57.6889231,21.4787692 55.7243077,21.4787692 L28.6089231,21.4787692 L27.8227692,14.7972308 C27.6658462,13.3049231 26.3289231,12.2818462 24.8350769,12.4387692 L23.7350769,12.5187692 L22.9489231,4.18646154 C22.792,2.37876923 21.2996923,0.964923077 19.4104615,0.964923077 L3.53661538,0.964923077 C1.57046154,0.964923077 -0.000307692308,2.53723077 -0.000307692308,4.50184615 C-0.000307692308,6.46646154 1.57046154,6.85876923 3.53661538,6.85876923 L17.3689231,6.85876923 L18.8627692,24.6218462 L19.0196923,25.9587692 L19.8058462,34.368 C11.8673846,38.0618462 5.18738462,46.0787692 5.18738462,55.3541538 C5.18738462,68.0864615 15.5612308,78.4603077 28.2935385,78.4603077 C40.9458462,78.4603077 51.2443077,68.2433846 51.3996923,55.668 L53.3658462,55.668 L53.3658462,64.628 C52.8950769,65.6495385 52.5796923,66.828 52.5796923,68.008 C52.5796923,72.488 56.2750769,76.1818462 60.7535385,76.1818462 C65.2350769,76.1818462 68.9289231,72.488 68.9289231,68.008 C68.9289231,63.528 65.2350769,59.9126154 60.7535385,59.9126154 L60.7535385,59.9126154 Z" id="Fill-6" fill="#85929D" mask="url(#mask-2)"></path>
                        </g>
                    </g>
                </g>
            </g>
        </g>
    </g>
</svg>

<svg width="83" height="79" viewBox="0 0 83 79" xmlns="http://www.w3.org/2000/svg" xmlns:xlink="http://www.w3.org/1999/xlink"><defs><path id="a" d="M0 .965V78.46h68.929V.965H0z"/></defs><g fill="none" fill-rule="evenodd"><path d="M82.368 63.135c-1.346-2.257-4.296-3.005-6.599-1.665l-6.37 3.708 2.36 4.088 10.609-6.131zm-53.492-9.833a3.15 3.15 0 1 0 0 6.299 3.15 3.15 0 0 0 0-6.299" fill="#85929D"/><mask id="b" fill="#fff"><use xlink:href="#a"/></mask><path d="M60.914 72.102a3.93 3.93 0 0 1 0-7.86 3.93 3.93 0 1 1 0 7.86zm-7.627-25.55h-3.693c-3.302-8.018-11.004-13.756-20.042-14.227-.08-.786-.55-4.874-.55-4.874h24.285v19.1zM28.244 72.75c-9.458 0-17.126-7.668-17.126-17.127 0-9.458 7.668-17.124 17.126-17.124 9.457 0 17.125 7.666 17.125 17.124 0 9.459-7.668 17.127-17.125 17.127zm32.51-12.837H59.26v-4.245h6.053v-9.117H59.26V25.016a3.522 3.522 0 0 0-3.537-3.537H28.61l-.786-6.682c-.157-1.492-1.494-2.515-2.988-2.358l-1.1.08-.786-8.333A3.519 3.519 0 0 0 19.41.965H3.537A3.522 3.522 0 0 0 0 4.502c0 1.964 1.57 2.357 3.537 2.357h13.832l1.494 17.763.157 1.337.786 8.409c-7.939 3.694-14.619 11.71-14.619 20.986 0 12.732 10.374 23.106 23.107 23.106 12.652 0 22.95-10.217 23.106-22.792h1.966v8.96c-.47 1.022-.786 2.2-.786 3.38 0 4.48 3.695 8.174 8.174 8.174 4.481 0 8.175-3.694 8.175-8.174 0-4.48-3.694-8.095-8.175-8.095z" fill="#85929D" mask="url(#b)"/></g></svg>
